X:53
T:Randy Dandy O!
M:6/8
L:1/8
K:Dm
f2f/f/ efe|d>ed A3|d3 e3|d2c A2(A/B/)|
c>dc cBA|GGG C2F/G/|A>BA A2G|F2D D3|
f2f e2e|d2d A3|d3 e3|d2c A2A|
c>dc cBA|GGG C2F/G/|A>BA A2G|F2D D3||
